X:100
T:Star Waltz. Le4.100, The
M:3/8
L:1/8
N:Key Sig in MS is D
Q:1/4=70
B:L.Leadley MS#4 c1850
Z:Village Music Project, 2016 Ruairidh Greig
K:G
d3|cBA|G3|DGB|B2A|DFA|e2d|B3|
d3|cBA|G3|DGB|B2A|cDF|AG (B/A/)|G2z:|
|:A3|DFA|e2d|B3|A3|DFA|e2d|B3|
d3|cBA|G3|DGB|B2A|cDF|A/G/ BA|G2z:|
|:D|D d/c/c/A/|(A/F/F/D/D/F/)|G/D/G/B/ d|B/G/B/d/ g|
g/c/e/g/ c|g/B/d/g/ G|.D/.F/.A/.d/.f/.a/|g2zH:|

